X:1
T:Title
%%score { ( 1 4 5 ) | ( 2 3 6 ) }
L:1/8
Q:1/4=108
M:4/4
K:Eb
V:1 treble nm="Grand Piano"
V:4 treble 
V:5 treble 
V:2 bass 
V:3 bass 
V:6 bass 
V:1
 E3 F A2 G2 | c2 =A2 A2 B2 | c2 d2 e2 B2 | c2 A2 F4 | F3 G F2 E2 | z2 z B A2 G2 | z4 d4 | %7
w: Burnham~Horner * * *|||||||
 d2 c2 [DB]4 | z4 _d2 z2 | z4 [GB]2 z2 | A2 z2 z4 | [FB]2 z2 [FA]2 z2 | %12
w: |||||
 [B,EG]2 [A,EA]2 [EB]2 [Ec]2 | [B,E]4 [DF]4 | [B,E]8 |] %15
w: |||
V:2
 E,3 F, A,2 G,2 | [E_G]6 z2 | [=B,CF]2 [A,B,F]2[K:bass] [G,B,E]2 [G,B,E]2 | [A,E]2 [F,CE]2 [B,D]4 | %4
 [A,D]6 z2 | [=B,E]2 z2 z4 | [B,E]4 F4[K:treble] | [F,B,F]2[K:bass] [F,=A,E]2 [B,,B,]4 | %8
 G,2 F,2 z2[K:treble] _d2 | z2 z _D =E,2 F,2 | F,2 E,2 z2 z[K:treble] =B | z2 F2[K:bass] D,2 E,2 | %12
 _D,2 C,2 [B,,G,]2 [A,,_G,]2 | [B,,G,]4 [B,,A,B,]4 | [E,G,]8 |] %15
V:3
 x8 | =A,2 C2 =B,2 [_B,E=G]2 | x4[K:bass] x4 | x8 | B,6- [G,B,]2 | %5
 F,2- [F,_B,]2 [E,B,D]2 [E,B,E]2 | G,2 _G,2 [F,B,]2 z[K:treble] G | x2[K:bass] x6 | %8
 [B,G]4 [=E,B,]4[K:treble] | =E,4 z4 | z4 [D,A,]4[K:treble] | D,4[K:bass] z4 | x8 | x8 | x8 |] %15
V:4
 x8 | x8 | x8 | x8 | x8 | A4 z4 | B2 c2 z2 z e | x8 | B2 c2 G4 | [CGc]3 G C2- [CFA]2 | %10
 [A,F]2- [A,FB]2 [F=B]4 | B,4 B,2- [B,EG]2 | x8 | x8 | x8 |] %15
V:5
 x8 | x8 | x8 | x8 | x8 | z2 D2 z4 | z4 z2 B,2 | x8 | x8 | x8 | x8 | x8 | x8 | x8 | x8 |] %15
V:6
 x8 | x8 | x4[K:bass] x4 | x8 | x8 | x8 | z4 z2 E,2[K:treble] | x2[K:bass] x6 | x6[K:treble] x2 | %9
 x8 | x7[K:treble] x | x4[K:bass] x4 | x8 | x8 | x8 |] %15

